X:165 
T:Pivot Hornpipe, The 
S:Sheahan MS
F:file ID: cre.4/165pivot
B:CRE4.213 (Mhaidhdeog)
L:1/8
Q:150
M:4/4
R:hornpipe
K:D
FA|d2df edcB|A^GAB A=GFE|DFAF DBAF|B2E2 E2A2|
d2 df edcB|A^GAB A=GFE|DFAF BGEC|D2 D2 D2:|
|:cd|efge dcBA|defg a2 fa|g2 eg f2 df|edef e2 cd|
efge dcBA|defg a2 fa|g2 eg f2 df|1 ecdB A2:|\
[2 edef d4||

%%%

